X: 29830
T: O'Connor's
R: polka
M: 2/4
K: Gmajor
|:D>E GB|D>E GB/A/|GE ED/E/|GE EG|
D>E GB|D>E GB|AE FG|1 AG G2:|2 AG GA/B/||
|:dB BA/B/|dB B>A|GE ED/E/|GE EA/B/|
dB BA/B/|dB B>A|GE FG|1 AG GA/B:|2 AG G2||

